assets/icons/icon-twitter.svg

<svg width="21" height="18" viewBox="0 0 21 18" fill="none" xmlns="http://www.w3.org/2000/svg">
<path d="M20.667 2.79705C19.9181 3.12903 19.1236 3.34678 18.31 3.44305C19.1672 2.93067 19.8084 2.12375 20.114 1.17305C19.3084 1.65111 18.4271 1.98796 17.508 2.16905C17.1243 1.75932 16.6604 1.43284 16.1452 1.2099C15.6299 0.986956 15.0744 0.8723 14.513 0.873051C11.864 0.873051 9.91802 3.34505 10.516 5.91105C8.88458 5.82942 7.28855 5.40555 5.83158 4.66699C4.3746 3.92842 3.08926 2.89167 2.05902 1.62405C1.53476 2.52752 1.37427 3.59675 1.61018 4.61432C1.84609 5.6319 2.46069 6.52143 3.32902 7.10205C2.67738 7.08213 2.03996 6.90658 1.47002 6.59005C1.42502 8.49105 2.78702 10.2701 4.76002 10.6651C4.15573 10.8291 3.52196 10.8531 2.90702 10.7351C3.16891 11.5507 3.67936 12.264 4.36687 12.775C5.05438 13.2861 5.88451 13.5693 6.74102 13.5851C5.02118 14.9341 2.83626 15.5455 0.666016 15.2851C2.5423 16.4904 4.7259 17.1303 6.95602 17.128C14.574 17.128 18.878 10.6941 18.618 4.92305C19.4213 4.34217 20.1148 3.62295 20.666 2.79905L20.667 2.79705Z" fill="black"/>
</svg>

<svg xmlns="http://www.w3.org/2000/svg" width="21" height="18"><path fill="#FFF" d="M20.667 2.797a8.192 8.192 0 01-2.357.646 4.11 4.11 0 001.804-2.27 8.22 8.22 0 01-2.606.996A4.096 4.096 0 0014.513.873c-2.649 0-4.595 2.472-3.997 5.038a11.648 11.648 0 01-8.457-4.287 4.109 4.109 0 001.27 5.478A4.086 4.086 0 011.47 6.59c-.045 1.901 1.317 3.68 3.29 4.075a4.113 4.113 0 01-1.853.07 4.106 4.106 0 003.834 2.85 8.25 8.25 0 01-6.075 1.7 11.616 11.616 0 006.29 1.843c7.618 0 11.922-6.434 11.662-12.205a8.354 8.354 0 002.048-2.124z"/></svg>
